src/assets/duotone/KeySquare.svg

<svg width="24" height="24" viewBox="0 0 24 24"  xmlns="http://www.w3.org/2000/svg">
<path opacity="0.4" d="M16.19 2H7.81C4.17 2 2 4.17 2 7.81V16.18C2 19.83 4.17 22 7.81 22H16.18C19.82 22 21.99 19.83 21.99 16.19V7.81C22 4.17 19.83 2 16.19 2Z" />
<path d="M15.8902 8.10982C14.4102 6.63982 12.0102 6.63982 10.5402 8.10982C9.51019 9.12982 9.20019 10.6098 9.60019 11.9098L7.25019 14.2598C7.09019 14.4298 6.97019 14.7598 7.01019 14.9998L7.16019 16.0898C7.21019 16.4498 7.55019 16.7898 7.91019 16.8398L9.00019 16.9998C9.24019 17.0298 9.57019 16.9298 9.74019 16.7498L10.1502 16.3398C10.2502 16.2498 10.2502 16.0898 10.1502 15.9898L9.18019 15.0198C9.04019 14.8798 9.04019 14.6398 9.18019 14.4898C9.32019 14.3498 9.56019 14.3498 9.71019 14.4898L10.6802 15.4598C10.7702 15.5498 10.9302 15.5498 11.0302 15.4598L12.0902 14.4098C13.3802 14.8098 14.8602 14.4998 15.8902 13.4798C17.3702 11.9898 17.3702 9.58982 15.8902 8.10982ZM13.2502 11.9998C12.5602 11.9998 12.0002 11.4398 12.0002 10.7498C12.0002 10.0598 12.5602 9.49982 13.2502 9.49982C13.9402 9.49982 14.5002 10.0598 14.5002 10.7498C14.5002 11.4398 13.9402 11.9998 13.2502 11.9998Z" />
</svg>

<?xml version="1.0" encoding="UTF-8"?>
<svg width="24" height="24" viewBox="0 0 24 24" xmlns="http://www.w3.org/2000/svg">
 <path d="M16.19 2H7.81C4.17 2 2 4.17 2 7.81V16.18C2 19.83 4.17 22 7.81 22H16.18C19.82 22 21.99 19.83 21.99 16.19V7.81C22 4.17 19.83 2 16.19 2Z" opacity=".4"/>
 <path d="m15.89 8.1098c-1.48-1.47-3.88-1.47-5.35 0-1.03 1.02-1.34 2.5-0.94001 3.8l-2.35 2.35c-0.16 0.17-0.28 0.5-0.24 0.74l0.15 1.09c0.05 0.36 0.39 0.7 0.75 0.75l1.09 0.16c0.24 0.03 0.57-0.07 0.74-0.25l0.41001-0.41c0.1-0.09 0.1-0.25 0-0.35l-0.97001-0.97c-0.14-0.14-0.14-0.38 0-0.53 0.14-0.14 0.38-0.14 0.53 0l0.97001 0.97c0.09 0.09 0.25 0.09 0.35 0l1.06-1.05c1.29 0.4 2.77 0.09 3.8-0.93 1.48-1.49 1.48-3.89 0-5.37zm-2.64 3.89c-0.69 0-1.25-0.56-1.25-1.25s0.56-1.25 1.25-1.25 1.25 0.55998 1.25 1.25-0.56 1.25-1.25 1.25z"/>
</svg>
